X:117
T:New Wells. ThoH.117, The
Q:1/2=90
M:3/2
L:1/4
B:Thompson's Compleat Collection of 120 Favourite Hornpipes.
Z:Village Music Project, Simon Wilson 2016
O:England.
K:Bb
B2d/c/B/A/ B/c/d|d2f/e/d/c/ d/e/f|F2GFed|(c/d/e/f/)gB{B}A2|
B2d/c/B/A/ B/c/d|d2f/e/d/c/ d/e/f|F2GFed|cBFAB2||
d2gded|c2fcdc|B2fBAG|.A/(F/G/A/) (B/c/d/=e/)f2|
F2GFed|F2GFed|{ef}g2fBFA|B6:|

